svg/other/shovel_fill.svg

<?xml version="1.0" encoding="UTF-8"?>
<svg width="24px" height="24px" viewBox="0 0 24 24" version="1.1" xmlns="http://www.w3.org/2000/svg" xmlns:xlink="http://www.w3.org/1999/xlink">
    <title>shovel_fill</title>
    <g id="Icon" stroke="none" stroke-width="1" fill="none" fill-rule="evenodd">
        <g id="Other" transform="translate(-48.000000, -144.000000)" fill-rule="nonzero">
            <g id="shovel_fill" transform="translate(48.000000, 144.000000)">
                <path d="M24,0 L24,24 L0,24 L0,0 L24,0 Z M12.5935,23.2578 L12.5819,23.2595 L12.5109,23.295 L12.4919,23.2987 L12.4767,23.295 L12.4057,23.2595 C12.3958,23.2564 12.387,23.259 12.3821,23.2649 L12.378,23.2758 L12.3609,23.7031 L12.3659,23.7235 L12.3769,23.7357 L12.4805,23.8097 L12.4953,23.8136 L12.5071,23.8097 L12.6107,23.7357 L12.6233,23.7197 L12.6267,23.7031 L12.6096,23.2758 C12.6076,23.2657 12.601,23.2593 12.5935,23.2578 Z M12.8584,23.1453 L12.8445,23.1473 L12.6598,23.2397 L12.6499,23.2499 L12.6472,23.2611 L12.6651,23.6906 L12.6699,23.7034 L12.6784,23.7105 L12.8793,23.8032 C12.8914,23.8069 12.9022,23.803 12.9078,23.7952 L12.9118,23.7812 L12.8777,23.1665 C12.8753,23.1546 12.8674,23.147 12.8584,23.1453 Z M12.143,23.1473 C12.1332,23.1424 12.1222,23.1453 12.1156,23.1526 L12.1099,23.1665 L12.0758,23.7812 C12.0751,23.7927 12.0828,23.8019 12.0926,23.8046 L12.1083,23.8032 L12.3092,23.7105 L12.3186,23.7024 L12.3225,23.6906 L12.3404,23.2611 L12.3372,23.2485 L12.3278,23.2397 L12.143,23.1473 Z" id="MingCute"></path>
                <path d="M16.2425,3.51457 C16.6331,3.12405 17.2662,3.12405 17.6568,3.51457 L19.0663,4.92409 L19.071,4.92876 L19.0756,4.93346 L20.4852,6.343 C20.8757,6.73352 20.8757,7.36669 20.4852,7.75721 C20.0947,8.14774 19.4615,8.14774 19.071,7.75721 L18.3639,7.05009 L13.4141,11.9998 L14.8283,13.4141 C15.6094,14.1951 15.6094,15.4614 14.8283,16.2425 L12.3338,18.7371 C10.9946,20.0762 9.01377,20.5438 7.21709,19.9449 L6.26841,19.6287 C5.37259,19.3301 4.66965,18.6272 4.37104,17.7313 L4.05481,16.7827 C3.45592,14.986 3.92354,13.0052 5.2627,11.666 L7.75727,9.17142 C8.53832,8.39037 9.80465,8.39037 10.5857,9.17142 L11.9999,10.5856 L16.9496,5.63588 L16.2425,4.92879 C15.852,4.53826 15.852,3.9051 16.2425,3.51457 Z" id="路径" fill="#09244B"></path>
            </g>
        </g>
    </g>
</svg>

<svg xmlns="http://www.w3.org/2000/svg" width="24" height="24"><g fill="none" fill-rule="nonzero"><path d="M24 0v24H0V0h24ZM12.594 23.258l-.012.002-.071.035-.02.004-.014-.004-.071-.036c-.01-.003-.019 0-.024.006l-.004.01-.017.428.005.02.01.013.104.074.015.004.012-.004.104-.074.012-.016.004-.017-.017-.427c-.002-.01-.009-.017-.016-.018Zm.264-.113-.014.002-.184.093-.01.01-.003.011.018.43.005.012.008.008.201.092c.012.004.023 0 .029-.008l.004-.014-.034-.614c-.003-.012-.01-.02-.02-.022Zm-.715.002a.023.023 0 0 0-.027.006l-.006.014-.034.614c0 .012.007.02.017.024l.015-.002.201-.093.01-.008.003-.011.018-.43-.003-.012-.01-.01-.184-.092Z"/><path fill="#09244B" d="M16.243 3.515a1 1 0 0 1 1.414 0l1.41 1.41.004.004.005.004 1.41 1.41a1 1 0 0 1-1.415 1.414l-.707-.707-4.95 4.95 1.414 1.414a2 2 0 0 1 0 2.829l-2.494 2.494a5 5 0 0 1-5.117 1.208l-.949-.316a3 3 0 0 1-1.897-1.898l-.316-.948a5 5 0 0 1 1.208-5.117l2.494-2.495a2 2 0 0 1 2.829 0L12 10.586l4.95-4.95-.707-.707a1 1 0 0 1 0-1.414Z"/></g></svg>
